web/themes/custom/parc/logo.svg

<svg width="221" height="62" viewbox="0 0 221 62" fill="none" xmlns="http://www.w3.org/2000/svg">
  <g><path class="line1" d="M170.749 29.7839C170.749 20.2764 176.705 12.7099 184.557 10.2617" stroke="black" stroke-width="3.77593" stroke-linecap="round"/></g>
  <g><path class="line1" d="M207.651 19.9036C205.553 14.9686 201.363 11.4392 195.985 10.0234" stroke="black" stroke-width="3.77593" stroke-linecap="round"/></g>
  <g><path class="line1" d="M172.298 40.498C174.451 46.343 178.767 50.4739 184.559 52.1638" stroke="black" stroke-width="3.77593" stroke-linecap="round"/></g>
  <g><path class="line1 " d="M207.413 43.8301C205.087 48.0415 201.02 51.0896 195.985 52.4008" stroke="black" stroke-width="3.77593" stroke-linecap="round"/></g>
  <g><path class="line1 " d="M138.013 40.498L140.169 44.56L144.084 52.4018" stroke="black" stroke-width="3.77593" stroke-linecap="round"/></g>
  <g><path class="line1 " d="M75.757 15.6191L70.0547 29.5712" stroke="black" stroke-width="3.77593" stroke-linecap="round"/></g>
  <g><path class="line1 " d="M117.182 52.4018L117.182 46.4499L117.182 40.498" stroke="black" stroke-width="3.77593" stroke-linecap="round"/></g>
  <g><path class="line1 " d="M117.182 29.7846L117.182 22.7019L117.182 15.6191" stroke="black" stroke-width="3.77593" stroke-linecap="round"/></g>
  <g><path class="line1 " d="M97.8973 52.4011L92.4131 40.3516" stroke="black" stroke-width="3.77593" stroke-linecap="round"/></g>
  <g><path class="line1 line2" d="M73.2578 34.9023L84.4474 34.9023" stroke="black" stroke-width="3.77593" stroke-linecap="round"/></g>
  <g><path class="line1 " d="M13.0254 52.4018L13.0254 40.498" stroke="black" stroke-width="3.77593" stroke-linecap="round"/></g>
  <g><path class="line1 " d="M13.0254 30.0227L13.0254 15.6191" stroke="black" stroke-width="3.77593" stroke-linecap="round"/></g>
  <g><path class="line1 " d="M18.0244 35.1406H28.699C37.0066 35.1406 42.4272 30.3248 42.4272 22.6728C42.4272 14.7941 37.0655 10.2617 28.699 10.2617H18.0244" stroke="black" stroke-width="3.77593" stroke-linecap="round"/></g>
  <circle cx="13.0236" cy="10.0236" r="2.02364" fill="var(--c-logo-circle, #1C85FF)"/>
  <circle cx="13.0236" cy="35.1408" r="2.02364" fill="var(--c-logo-circle, #1C85FF)"/>
  <g><path class="line1 line2" d="M122.777 35.1406H130.642" stroke="black" stroke-width="3.77593" stroke-linecap="round"/></g>
  <g><path class="line1 line2" d="M45.9961 35.1406H62.0662" stroke="black" stroke-width="3.77593" stroke-linecap="round"/></g>
  <g><path class="line1 line2" d="M95.6377 34.9023H111.589" stroke="black" stroke-width="3.77593" stroke-linecap="round"/></g>
  <g><path class="line1 line2" d="M149.442 35.1406H165.512" stroke="black" stroke-width="3.77593" stroke-linecap="round"/></g>
  <circle cx="67.6594" cy="34.9025" r="2.02364" fill="var(--c-logo-circle, #1C85FF)"/>
  <circle cx="78.8518" cy="10.2619" r="2.02364" fill="var(--c-logo-circle, #1C85FF)"/>
  <circle cx="117.18" cy="10.2619" r="2.02364" fill="var(--c-logo-circle, #1C85FF)"/>
  <circle cx="117.18" cy="34.9025" r="2.02364" fill="var(--c-logo-circle, #1C85FF)"/>
  <circle cx="135.989" cy="35.1408" r="2.02364" fill="var(--c-logo-circle, #1C85FF)"/>
  <circle cx="170.807" cy="35.1408" r="2.02364" fill="var(--c-logo-circle, #1C85FF)"/>
  <circle cx="190.392" cy="52.4006" r="2.02364" fill="var(--c-logo-circle, #1C85FF)"/>
  <circle cx="190.392" cy="10.2619" r="2.02364" fill="var(--c-logo-circle, #1C85FF)"/>
  <circle cx="90.0393" cy="34.9025" r="2.02364" fill="var(--c-logo-circle, #1C85FF)"/>
  <g><path class="line1 " d="M81.8271 15.6191L88.2072 29.8754" stroke="black" stroke-width="3.77593" stroke-linecap="round"/></g>
  <g><path class="line1 " d="M122.777 10.2617H135.356C142.997 10.2617 147.894 15.2375 147.894 22.6744C147.894 27.8392 145.363 31.9917 141.146 33.9389" stroke="black" stroke-width="3.77593" stroke-linecap="round"/></g>
  <g><path class="line1 " d="M60.0068 52.3864L65.4751 40.4082" stroke="black" stroke-width="3.77593" stroke-linecap="round"/></g>
</svg>

<svg xmlns="http://www.w3.org/2000/svg" width="199.127" height="47.217" viewBox="0 0 199.127 47.217">
  <g transform="translate(-11 -7.717)">
    <path class="line1" d="M170.749,29.784a20.119,20.119,0,0,1,13.808-19.522" fill="none" stroke="#000" stroke-linecap="round" stroke-width="3.776"/>
    <path class="line1" d="M207.651,19.9a17.111,17.111,0,0,0-11.666-9.88" fill="none" stroke="#000" stroke-linecap="round" stroke-width="3.776"/>
    <path class="line1" d="M172.3,40.5a18.334,18.334,0,0,0,12.261,11.666" fill="none" stroke="#000" stroke-linecap="round" stroke-width="3.776"/>
    <path class="line1" d="M207.413,43.83A17.971,17.971,0,0,1,195.985,52.4" fill="none" stroke="#000" stroke-linecap="round" stroke-width="3.776"/>
    <path class="line1" d="M138.013,40.5l2.156,4.062,3.915,7.842" fill="none" stroke="#000" stroke-linecap="round" stroke-width="3.776"/>
    <path class="line1" d="M75.757,15.619l-5.7,13.952" fill="none" stroke="#000" stroke-linecap="round" stroke-width="3.776"/>
    <path class="line1" d="M117.182,52.4V40.5" fill="none" stroke="#000" stroke-linecap="round" stroke-width="3.776"/>
    <path class="line1" d="M117.182,29.785V15.619" fill="none" stroke="#000" stroke-linecap="round" stroke-width="3.776"/>
    <path class="line1" d="M97.9,52.4,92.413,40.352" fill="none" stroke="#000" stroke-linecap="round" stroke-width="3.776"/>
    <path class="line1" d="M73.258,34.9h11.19" fill="none" stroke="#000" stroke-linecap="round" stroke-width="3.776"/>
    <path class="line1" d="M13.025,52.4V40.5" fill="none" stroke="#000" stroke-linecap="round" stroke-width="3.776"/>
    <path class="line1" d="M13.025,30.023v-14.4" fill="none" stroke="#000" stroke-linecap="round" stroke-width="3.776"/>
    <path class="line1" d="M18.024,35.141H28.7c8.308,0,13.728-4.816,13.728-12.468,0-7.879-5.362-12.411-13.728-12.411H18.024" fill="none" stroke="#000" stroke-linecap="round" stroke-width="3.776"/>
    <path class="line1" d="M122.777,10.262h12.579c7.641,0,12.538,4.976,12.538,12.413,0,5.165-2.531,9.317-6.748,11.264" fill="none" stroke="#000" stroke-linecap="round" stroke-width="3.776"/>
    <path class="line1" d="M60.007,52.386l5.468-11.978" fill="none" stroke="#000" stroke-linecap="round" stroke-width="3.776"/>
    <path class="line1" d="M81.827,15.619l6.38,14.256" fill="none" stroke="#000" stroke-linecap="round" stroke-width="3.776"/>
    <path class="line1" d="M122.777,35.141h7.865" fill="none" stroke="#000" stroke-linecap="round" stroke-width="3.776"/>
    <path class="line1 line2" d="M46,35.141h16.07" fill="none" stroke="#000" stroke-linecap="round" stroke-width="3.776"/>
    <path class="line1 line2" d="M95.638,34.9h15.951" fill="none" stroke="#000" stroke-linecap="round" stroke-width="3.776"/>
    <path class="line1 line2" d="M149.442,35.141h16.07" fill="none" stroke="#000" stroke-linecap="round" stroke-width="3.776"/>
    <circle cx="2.024" cy="2.024" r="2.024" transform="translate(11 33.117)" fill="var(--c-logo-circle, #1C85FF)"/>
    <circle cx="2.024" cy="2.024" r="2.024" transform="translate(11 8)" fill="var(--c-logo-circle, #1C85FF)"/>
    <circle cx="2.024" cy="2.024" r="2.024" transform="translate(65.636 32.879)" fill="var(--c-logo-circle, #1C85FF)"/>
    <circle cx="2.024" cy="2.024" r="2.024" transform="translate(76.828 8.238)" fill="var(--c-logo-circle, #1C85FF)"/>
    <circle cx="2.024" cy="2.024" r="2.024" transform="translate(115.156 8.238)" fill="var(--c-logo-circle, #1C85FF)"/>
    <circle cx="2.024" cy="2.024" r="2.024" transform="translate(115.156 32.879)" fill="var(--c-logo-circle, #1C85FF)"/>
    <circle cx="2.024" cy="2.024" r="2.024" transform="translate(133.965 33.117)" fill="var(--c-logo-circle, #1C85FF)"/>
    <circle cx="2.024" cy="2.024" r="2.024" transform="translate(168.783 33.117)" fill="var(--c-logo-circle, #1C85FF)"/>
    <circle cx="2.024" cy="2.024" r="2.024" transform="translate(188.368 50.377)" fill="var(--c-logo-circle, #1C85FF)"/>
    <circle cx="2.024" cy="2.024" r="2.024" transform="translate(188.368 8.238)" fill="var(--c-logo-circle, #1C85FF)"/>
    <circle cx="2.024" cy="2.024" r="2.024" transform="translate(88.016 32.879)" fill="var(--c-logo-circle, #1C85FF)"/>
  </g>
</svg>
